icon-themes/sifr_svg/cmd/sc_substract.svg

<svg viewBox="0 0 16 16" xmlns="http://www.w3.org/2000/svg"><g fill="#555753"><path d="m6 0c-.554 0-1 .446-1 1v3h2v-2h6v8h-2v2h3c.554 0 1-.446 1-1v-10c0-.554-.446-1-1-1zm-3 6v8h6v-3h-3v-5z" opacity=".35"/><path d="m2 4c-.554 0-1 .446-1 1v10c0 .554.446 1 1 1h8c.554 0 1-.446 1-1v-5h-4v-6zm1 2h2v5c0 .554.446 1 1 1h3v2h-6z"/></g></svg>

<svg xmlns="http://www.w3.org/2000/svg" viewBox="0 0 16 16">
 <path
   style="opacity:0.35;fill:#555753"
   d="M 6 0 C 5.446 0 5 0.446 5 1 L 5 4 L 7 4 L 7 2 L 13 2 L 13 10 L 11 10 L 11 12 L 14 12 C 14.554 12 15 11.554 15 11 L 15 1 C 15 0.446 14.554 0 14 0 L 6 0 z M 3 6 L 3 14 L 9 14 L 9 11 L 6 11 L 6 6 L 3 6 z "
   />
<path
   style="fill:#555753"
   d="M 2 4 C 1.446 4 1 4.446 1 5 L 1 15 C 1 15.554 1.446 16 2 16 L 10 16 C 10.554 16 11 15.554 11 15 L 11 10 L 7 10 L 7 4 L 2 4 z M 3 6 L 5 6 L 5 11 C 5 11.554 5.446 12 6 12 L 9 12 L 9 14 L 3 14 L 3 6 z "
   />
</svg>
